sportPriority/img/titles/success_white..svg

<svg viewBox="0 0 33.78027 33.78076" xmlns="http://www.w3.org/2000/svg"><path d="m60.3584 31.42322-15.32422-16.5586v-13.8164a1.25033 1.25033 0 0 0 -1.249-1.24854h-8.43069a1.24949 1.24949 0 0 0 -1.248 1.24854v6.937a1.24949 1.24949 0 0 0 1.248 1.24854h7.21387v5.62988l-15.3252 16.55958a1.24541 1.24541 0 0 0 -.332.84766v.06055a1.24991 1.24991 0 0 0 1.248 1.249h31.2842a1.24991 1.24991 0 0 0 1.248-1.249v-.06055a1.23822 1.23822 0 0 0 -.33296-.84766zm-13.29-8.18066-2.53809-1.82861a1.24614 1.24614 0 0 0 -1.459 0l-2.53711 1.82861-1.416-1.02148 4.68258-5.06008 4.68359 5.06055zm-9.6377.80176 2.374 1.71a1.24614 1.24614 0 0 0 1.459-.001l2.53711-1.82715 2.53809 1.82813a1.24614 1.24614 0 0 0 1.459 0l2.374-1.71 6.54395 7.07031h-25.82913zm5.13766-21.77932v4.50343h-5.99707v-4.50343z" fill="#fff" transform="translate(-26.91113 .20032)"/></svg>

<svg id="Слой_1" data-name="Слой 1" xmlns="http://www.w3.org/2000/svg" viewBox="0 0 33.78027 33.78076">
  <defs>
    <style>
      .cls-1 {
        fill: #fff;
      }
    </style>
  </defs>
  <title>истории успеха</title>
  <path class="cls-1" d="M60.3584,31.42322,45.03418,14.86462V1.04822a1.25033,1.25033,0,0,0-1.249-1.24854H35.35449a1.24949,1.24949,0,0,0-1.248,1.24854v6.937a1.24949,1.24949,0,0,0,1.248,1.24854h7.21387v5.62988L27.24316,31.42322a1.24541,1.24541,0,0,0-.332.84766v.06055a1.24991,1.24991,0,0,0,1.248,1.249H59.44336a1.24991,1.24991,0,0,0,1.248-1.249v-.06055A1.23822,1.23822,0,0,0,60.3584,31.42322Zm-13.29-8.18066-2.53809-1.82861a1.24614,1.24614,0,0,0-1.459,0l-2.53711,1.82861-1.416-1.02148L43.80078,17.161l4.68359,5.06055Zm-9.6377.80176,2.374,1.71a1.24614,1.24614,0,0,0,1.459-.001l2.53711-1.82715,2.53809,1.82813a1.24614,1.24614,0,0,0,1.459,0l2.374-1.71,6.54395,7.07031H30.88672ZM42.56836,2.265V6.76843H36.57129V2.265Z" transform="translate(-26.91113 0.20032)"/>
</svg>
